X:1
T:Geisslerlied
C: .
L:1/4
M:C
K: F
FcBA|FAcc|AcBA|BA/G/FF|$
DFGA|FG/A/BA|AcBA|BA/G/FF|$
FcBA|FAcc|AcBA|BA/G/FF|$
DFGA|FG/A/BA|AcBA|BA/G/FF|$
FG/A/BA$|FG/A/BA$|AcBA|BA/G/FF|$
FG/A/BA$|FG/A/BA$|AcBA|BA/G/FF|$
Z: Daniel Araujo - Évora - Abril/2022